polaris-icons/icons/new-icons/ShipmentMajor.svg

<svg width="20" height="20" viewBox="0 0 20 20" fill="none" xmlns="http://www.w3.org/2000/svg">
<path fill-rule="evenodd" clip-rule="evenodd" d="M4 5.25C4 4.83579 4.33579 4.5 4.75 4.5H11.7414C12.9692 4.5 14.0483 5.31394 14.3856 6.49452L14.8125 7.98862C14.837 8.07452 14.9055 8.1408 14.9922 8.16247L16.6744 8.58303C17.4535 8.77779 18 9.47776 18 10.2808V11.5C18 12.2108 17.5763 12.8226 16.9676 13.0966C16.9889 13.2279 17 13.3627 17 13.5C17 14.8807 15.8807 16 14.5 16C13.1193 16 12 14.8807 12 13.5C12 13.4156 12.0042 13.3322 12.0123 13.25H8.98766C8.99582 13.3322 9 13.4156 9 13.5C9 14.8807 7.88071 16 6.5 16C5.11929 16 4 14.8807 4 13.5C4 13.1444 4.07422 12.8062 4.20802 12.5H3.75C3.33579 12.5 3 12.1642 3 11.75C3 11.3358 3.33579 11 3.75 11H6.25C6.27988 11 6.30935 11.0017 6.33831 11.0051C6.39177 11.0017 6.44568 11 6.5 11C7.19935 11 7.83163 11.2872 8.28536 11.75H12.7146C13.1684 11.2872 13.8007 11 14.5 11C15.1982 11 15.8296 11.2863 16.2832 11.7478C16.4056 11.7316 16.5 11.6268 16.5 11.5V10.2808C16.5 10.1661 16.4219 10.0661 16.3106 10.0382L14.6284 9.61769C14.0217 9.466 13.542 9.00205 13.3702 8.4007L12.9433 6.9066C12.79 6.36997 12.2995 6 11.7414 6H4.75C4.33579 6 4 5.66421 4 5.25ZM6.5 14.5C7.05228 14.5 7.5 14.0523 7.5 13.5C7.5 12.9477 7.05228 12.5 6.5 12.5C5.94772 12.5 5.5 12.9477 5.5 13.5C5.5 14.0523 5.94772 14.5 6.5 14.5ZM14.5 14.5C15.0523 14.5 15.5 14.0523 15.5 13.5C15.5 12.9477 15.0523 12.5 14.5 12.5C13.9477 12.5 13.5 12.9477 13.5 13.5C13.5 14.0523 13.9477 14.5 14.5 14.5Z" fill="#4A4A4A"/>
<path d="M3.25 8C2.83579 8 2.5 8.33579 2.5 8.75C2.5 9.16421 2.83579 9.5 3.25 9.5H8.25C8.66421 9.5 9 9.16421 9 8.75C9 8.33579 8.66421 8 8.25 8H3.25Z" fill="#4A4A4A"/>
</svg>

<svg viewBox="0 0 20 20" xmlns="http://www.w3.org/2000/svg"><path fill-rule="evenodd" d="M4 5.25a.75.75 0 0 1 .75-.75h6.991a2.75 2.75 0 0 1 2.645 1.995l.427 1.494a.25.25 0 0 0 .18.173l1.681.421a1.75 1.75 0 0 1 1.326 1.698v1.219a1.75 1.75 0 0 1-1.032 1.597 2.5 2.5 0 1 1-4.955.153h-3.025a2.5 2.5 0 1 1-4.78-.75h-.458a.75.75 0 0 1 0-1.5h2.5c.03 0 .06.002.088.005a2.493 2.493 0 0 1 1.947.745h4.43a2.493 2.493 0 0 1 1.785-.75c.698 0 1.33.286 1.783.748a.25.25 0 0 0 .217-.248v-1.22a.25.25 0 0 0-.19-.242l-1.682-.42a1.75 1.75 0 0 1-1.258-1.217l-.427-1.494a1.25 1.25 0 0 0-1.202-.907h-6.991a.75.75 0 0 1-.75-.75Zm2.5 9.25a1 1 0 1 0 0-2 1 1 0 0 0 0 2Zm8 0a1 1 0 1 0 0-2 1 1 0 0 0 0 2Z" fill="#5C5F62"/><path d="M3.25 8a.75.75 0 0 0 0 1.5h5a.75.75 0 0 0 0-1.5h-5Z" fill="#5C5F62"/></svg>
